GNOME++/actions/symbolic/mail-flag-symbolic.svg

<svg xmlns="http://www.w3.org/2000/svg" width="16" height="16" version="1.1" style="enable-background:new">
 <g transform="translate(-305.0004,-141)">
  <path d="m2 0v7 9h1v-9h4l1 2h6v-7h-4l-1-2h-5-2zm1 1h5l1 2h4v5h-4l-1-2h-5v-5z" transform="translate(305.0004,141)" style="fill:#808080"/>
 </g>
</svg>

<svg xmlns="http://www.w3.org/2000/svg" width="16" height="16" version="1.1">
 <path style="fill:#bebebe" d="M 2,0 V 7 16 H 4 V 7 H 7 L 8,9 H 14 V 2 H 10 L 9,0 H 4 Z"/>
</svg>
